X:2
T:Vals 
S:efter Anders Peter Roos
O:Hägerstad, Östergötland 
R:Vals
B:Ög 17
B:http://www.smus.se/earkiv/fmk/browselarge.php?lang=sw&katalogid=%C3%96g+17&bildnr=00004
M:3/8
L:1/16
K:D
(DF)(AF).A.F | (DG)(BG).B.G | (Ac)(ec).e.c | (Ad)(fd).f.d | 
(DF)(AF).A.F | (DG)(BG).B.G | (Ac)(ec).e.c |1 d4 z2 :|2 d4 f2 |: 
(ef)(gf).g.e | (Ad)(fd).f.d | (Ac)(ec).e.c | (de).f.ga2 | 
(ef)(gf).g.e | (Ad)(fd).f.d | (Ac)(ec).e.c |1 d4 f2 :|2 d4 z2 |]

